X:81
T: Graf und Nonne (Die Nonne)
N: Q0155R
O: Mitteleuropa, Deutschland / UdSSR, Kurisches Haff, Karkeln
N: Anhaengsel an der fuenften und siebten Zeile. Verzierung (Vorschlag)
N: Taktstrich in der ersten und dritten Zeile eingefuegt.
N: Schlusspause ergaenzt.
R: Ballade, Standesunterschied, vergebliche Werbung, Liebe, Klage
M: 2/4
L: 1/8
K: G
Bc | d3e | dcBA | B4 | A4 |
B2BB | ^c2c2 | d2
Bc | d3e | dcBA | B4 | A4 |
B2BB | ^c2c2 | d2
d2 | g2g2 | f2f2 | e4 | d3d | c4 | B2
d2 | e2dc | B2A2 | G4 | z2
d2 | g2g2 | f2f2 | e4 | d3d | c4 | B2
d2 | e2dc | B2A2 | G4 | z2

@@@ Tune index: 1791
